svg/cco/text-give-o.svg

<svg xmlns="http://www.w3.org/2000/svg" viewBox="0 0 16 16">
  <title>text-give-o</title>
  <g id="Layer_1" data-name="Layer 1">
    <path d="M15.023,11.916a.146.146,0,0,1-.146.146H6.24l-.252.168L3.154,14.117l-.01-1.063-.009-.992-1.995.022a.146.146,0,0,1-.148-.146L.969,1.364a.147.147,0,0,1,.147-.147H14.854A.146.146,0,0,1,15,1.363Zm0-11.7H.969a.978.978,0,0,0-.977.977V12.086a.977.977,0,0,0,.977.976H2.144l.021,2.34a.31.31,0,0,0,.481.255l3.9-2.6h8.481A.976.976,0,0,0,16,12.086V1.194a.977.977,0,0,0-.977-.977Z"/>
    <g>
      <path d="M5.413,5.519c-.354-.295-.812-.081-1.135.249l-.187.218L3.9,5.768c-.324-.33-.779-.544-1.133-.249A.9.9,0,0,0,2.7,6.84L2.855,7l1.138,1.16a.137.137,0,0,0,.2,0L5.48,6.84A.9.9,0,0,0,5.413,5.519Z"/>
      <path d="M13.181,5.519c-.354-.295-.812-.081-1.136.249l-.186.218-.19-.218c-.323-.33-.778-.544-1.132-.249A.9.9,0,0,0,10.47,6.84L10.622,7l1.139,1.16a.137.137,0,0,0,.2,0L13.248,6.84A.9.9,0,0,0,13.181,5.519Z"/>
      <path d="M9.3,5.519c-.354-.295-.812-.081-1.136.249l-.186.218-.189-.218c-.324-.33-.779-.544-1.133-.249A.9.9,0,0,0,6.586,6.84L6.738,7l1.139,1.16a.137.137,0,0,0,.2,0L9.364,6.84A.9.9,0,0,0,9.3,5.519Z"/>
    </g>
  </g>
</svg>

<svg xmlns="http://www.w3.org/2000/svg" viewBox="0 0 16 16"><title>text-give-o</title><g id="Layer_1" data-name="Layer 1"><path d="M15,11.92a.14.14,0,0,1-.14.14H6.24L6,12.23,3.15,14.12V12.06l-2,0A.15.15,0,0,1,1,11.94L1,1.36a.14.14,0,0,1,.15-.14H14.85a.15.15,0,0,1,.15.14ZM15,.22H1a1,1,0,0,0-1,1v10.9a1,1,0,0,0,1,1H2.14l0,2.34a.31.31,0,0,0,.48.26l3.89-2.6H15a1,1,0,0,0,1-1V1.19a1,1,0,0,0-1-1Z"/><path d="M5.41,5.52c-.35-.3-.81-.08-1.13.25L4.09,6,3.9,5.77c-.32-.33-.78-.55-1.13-.25A.9.9,0,0,0,2.7,6.84L2.85,7,4,8.16a.15.15,0,0,0,.2,0L5.48,6.84A.9.9,0,0,0,5.41,5.52Z"/><path d="M13.18,5.52c-.35-.3-.81-.08-1.13.25L11.86,6l-.19-.22c-.32-.33-.78-.55-1.13-.25a.9.9,0,0,0-.07,1.32l.15.16,1.14,1.16a.15.15,0,0,0,.2,0l1.29-1.32A.9.9,0,0,0,13.18,5.52Z"/><path d="M9.3,5.52c-.36-.3-.82-.08-1.14.25L8,6l-.19-.22c-.33-.33-.78-.55-1.14-.25a.9.9,0,0,0-.06,1.32L6.74,7,7.88,8.16a.14.14,0,0,0,.19,0L9.36,6.84A.9.9,0,0,0,9.3,5.52Z"/></g></svg>
